X:225
T: Jack Connell's
S: "Johnny O'Leary of Sliabh Luachra" (#267)
Z: B.Black
L: 1/8
M: 2/4
Q: 267
R: polka
K: G
G2 Bd|gf/g/ ed|G2 Bd|eB dc/d/|
GB/G/ Bd|gf/g/ ed|e/f/g/e/ dB|DE G2 :|
B2 BA|dB ed|B2 Bd|B/A/G/B/ A2|
B2-BA|dB ed|e/f/g/e/ dB|DE G2 :|
